X: 4051
T: KIRSTY MACFARLANE
C: Carl Volti
R: Reel.
%R: reel
B: James Kerr "Merry Melodies" v.4 p.08 #51
Z: 2016 John Chambers <jc:trillian.mit.edu>
M: C|
L: 1/8
K: D
|:\
vA2(AB) ABde | fedf edBd |\
A2(AB) ABde |[1 fedf e2a2 :|[2 fdec defg ||
|:\
a2(ab) afde | fedf edBA |\
[1 a2(ab) afde | fedf e2(fg) :|\
[2 A2(AB) ABde | fdec d2f2 |]

%%sep 1 1 500
%%sep 1 1 500

